/* XPM */
static char *betty_fanmade[] = {
/* columns rows colors chars-per-pixel */
"60 60 188 2 ",
"   c #000000",
".  c #0B0303",
"X  c #03060D",
"o  c #04080F",
"O  c #140605",
"+  c #1B0705",
"@  c #1D0805",
"#  c #170708",
"$  c #1D090A",
"%  c #050A12",
"&  c #090B11",
"*  c #060E19",
"=  c #080F1A",
"-  c #110E16",
";  c #07111D",
":  c #09111C",
">  c #14131C",
",  c #1A131D",
"<  c #1A191D",
"1  c #210301",
"2  c #230906",
"3  c #2A0B07",
"4  c #230B0B",
"5  c #2D0D09",
"6  c #340C07",
"7  c #340E09",
"8  c #390F09",
"9  c #28110E",
"0  c #34110B",
"q  c #3C110B",
"w  c #2E0E10",
"e  c #310F11",
"r  c #2C191A",
"t  c #351012",
"y  c #3C1314",
"u  c #371B19",
"i  c #3E241E",
"p  c #071320",
"a  c #0A1421",
"s  c #1E1D23",
"d  c #271924",
"f  c #3F1B24",
"g  c #29272B",
"h  c #3A2C28",
"j  c #3A332E",
"k  c #2C2D32",
"l  c #383535",
"z  c #43130D",
"x  c #4B160E",
"c  c #4C180F",
"v  c #53180F",
"b  c #411515",
"n  c #441A13",
"m  c #4D1911",
"M  c #461518",
"N  c #4B171A",
"B  c #4F181B",
"V  c #5C1210",
"C  c #541A11",
"Z  c #5C1C12",
"A  c #53191D",
"S  c #661412",
"D  c #611E13",
"F  c #721513",
"G  c #46231C",
"H  c #5C2016",
"J  c #53241B",
"K  c #5B261F",
"L  c #632116",
"P  c #692115",
"I  c #652418",
"U  c #6B2519",
"Y  c #6C2A1D",
"T  c #722619",
"R  c #74291C",
"E  c #7B2C1E",
"W  c #451C25",
"Q  c #4D1D26",
"!  c #4A1F29",
"~  c #5C1C20",
"^  c #621E22",
"/  c #681F24",
"(  c #432726",
")  c #462B25",
"_  c #4A2C25",
"`  c #582927",
"'  c #4D332C",
"]  c #58352D",
"[  c #433C3B",
"{  c #5A3B32",
"}  c #6C2126",
"|  c #632D27",
" . c #64232C",
".. c #712227",
"X. c #742329",
"o. c #7B252B",
"O. c #64352C",
"+. c #622630",
"@. c #762A34",
"#. c #7A2932",
"$. c #653A31",
"%. c #703F35",
"&. c #4A423E",
"*. c #56423B",
"=. c #694138",
"-. c #6A463C",
";. c #7A453B",
":. c #4B4645",
">. c #584944",
",. c #5B514B",
"<. c #684940",
"1. c #75554A",
"2. c #655A53",
"3. c #6D5F58",
"4. c #795D52",
"5. c #7C6257",
"6. c #73635A",
"7. c #7B6C63",
"8. c #81272D",
"9. c #86282E",
"0. c #88292E",
"q. c #853221",
"w. c #893624",
"e. c #852C34",
"r. c #8B2B31",
"t. c #932D34",
"y. c #9A2F36",
"u. c #9B3038",
"i. c #9A3139",
"p. c #A43139",
"a. c #A63239",
"s. c #A9333B",
"d. c #AC343C",
"f. c #AE343C",
"g. c #B3363E",
"h. c #B4363E",
"j. c #814A3E",
"k. c #8D503F",
"l. c #B83740",
"z. c #845549",
"x. c #875548",
"c. c #94574A",
"v. c #9A5B4C",
"b. c #995F51",
"n. c #A35D4E",
"m. c #8C6D5F",
"M. c #976659",
"N. c #AB6959",
"B. c #806D62",
"V. c #947667",
"C. c #8F7C70",
"Z. c #A67667",
"A. c #AE7D69",
"S. c #B07463",
"D. c #B57D6B",
"F. c #9B8677",
"G. c #A18576",
"H. c #B68773",
"J. c #AC907D",
"K. c #C0957F",
"L. c #A89282",
"P. c #AA9889",
"I. c #B89A87",
"U. c #BEA18D",
"Y. c #BCA492",
"T. c #C4A58F",
"R. c #C5AA95",
"E. c #D2B39D",
"W. c #D9B69F",
"Q. c #D8B7A0",
"!. c #DCBBA4",
"~. c #E4C0A7",
"^. c #E3C4AB",
"/. c #EFC6AC",
"(. c #EBC9AF",
"). c #F0C7AD",
"_. c #F1C9AE",
"`. c #E5CAB4",
"'. c #ECCDB3",
"]. c #F5CDB2",
"[. c #EDD2B8",
"{. c #F9D1B6",
"}. c #F5D6BB",
"|. c #FDD6BA",
" X c #FEDABE",
".X c #FEDEC2",
"XX c #FFE1C5",
"oX c #FFE4C8",
/* pixels */
"g.g.g.g.g.g.g.g.g.g.g.g.g.g.h.g.9.t                     # o.h.h.h.h.h.g.g.g.g.g.g.g.g.g.g.g.g.g.g.g.g.g.g.g.g.g.g.g.g.g.",
"g.g.g.g.g.g.g.g.g.g.g.g.g.h.f.~ O                         # } ..^ o.s.g.f.h.h.g.g.g.g.g.g.g.g.g.g.g.g.g.g.g.g.g.g.g.g.g.",
"g.g.g.g.g.g.g.g.g.g.g.g.g.g.~                               .     . y b t A y.h.h.h.h.h.g.g.g.g.g.g.g.g.g.g.g.g.g.g.g.g.",
"g.g.g.g.g.g.g.g.g.g.g.g.g.} .                                               $ A / t.a.f.h.h.g.g.g.g.g.g.g.g.g.g.g.g.g.g.",
"g.g.g.g.g.g.g.g.g.g.h.f./ .                                                       O $ y ~ a.h.g.g.g.g.g.g.g.g.g.g.g.g.g.",
"g.g.g.g.g.g.g.g.g.h.y.M .                                                             . 4 ..s.h.g.g.g.g.g.g.g.g.g.g.g.g.",
"g.g.g.g.g.g.g.h.f.} $                                                                     . t t.g.g.g.g.g.g.g.g.g.g.g.g.",
"g.g.g.g.g.g.g.f.A .                                                                           4 o.g.g.g.g.g.g.g.g.g.g.g.",
"g.g.g.g.g.g.h.a.4                                                                             . 5 t.h.g.g.g.g.g.g.g.g.g.",
"g.g.g.g.g.g.g.g.M                                             2 2 O .                           . y a.h.g.g.g.g.g.g.g.g.",
"g.g.g.g.g.g.g.9.#                                           . 7 z q 7 #                             ..h.h.g.g.g.g.g.g.g.",
"g.g.g.g.g.f.^ O                                             @ q q z z 8 +                           O A a.h.g.g.g.g.g.g.",
"g.g.g.g.h.y.O                                             O 8 z m x x z 8 O                             b a.h.g.g.g.g.g.",
"g.g.g.g.f.B                                               2 z C I Z m z q 5 .                           . r.h.g.g.g.g.g.",
"g.g.g.h.y.#                                               3 m U R U Z x z 7 .                           $ y.h.g.g.g.g.g.",
"g.g.g.g.^ O                                             . q U E E R U C z 7 .                             5 t.h.g.g.g.g.",
"g.g.h.a.t                                             O q L E E E E R Z x z 2                               A h.g.g.g.g.",
"g.g.g.r.4                                           # x I E E E E E E U C x q .                           . } h.g.g.g.g.",
"g.h.s.t                                         . . q U E E E E E E E T H c z @                             t t.h.g.g.g.",
"g.h.y.e                                         7 C U E E E E E E E R U C z q 5 .                             e s.h.g.g.",
"g.h.8.#                                   . O @ x I R E E E E E R I C q 7 7 q q .                               ~ g.g.g.",
"g.h.}                                   . q x q 5 5 0 m R E E I q 3 7 x C v x c #                               . ..g.g.",
"h.a.e                               . # z D L D Z q 7 C R E U C 7 7 C Z C v v C 5                               . t s.h.",
"h.u.t                               # 5 0 y G n n n q C R E U q 5 0 n G h *.) u 9 .                             # A a.h.",
"g.h.r..                             r h ,.L.7.,.>.<.( 7 I E Z @ ) >.2.6.P.R.6.-.r                               t 8.f.g.",
"g.g.A                               ] x.4.L.G.4.5.1.O.2 0 C 0 + ] 1.5.V.G.x.x.c.(                               e a.h.g.",
"g.g.^ .                           . $.v.c.x.Z.M.x.v.$.+ 2 5 2 # O.c.M.Z.Z.M.v.c.h                               . 9.h.g.",
"g.h.s.5                         . . O.n.n.N.D.S.n.n.$.5 c Z c 5 ' n.N.D.D.N.n.x.j                                 N g.g.",
"g.g.f.e                         2 @ G ;.;.j.x.x.;.%.i q Z I Z z u j.b.N.M.x.j.=.g                               . M f.g.",
"g.g.h.X..                       + @ 0 m Z H H H L m 7 x m m m x 0 y J K J n m 4                                 $ y.h.g.",
"g.g.h.8..                       . r 0 Z T E E E E D q z I E R C z z T E E T I 2                               4 8.f.g.g.",
"g.g.h.y.$                         j 9 x L R E R T C 3 3 x I m 2 @ 5 U R T P C @                               y g.h.g.g.",
"g.g.g.g.A .                         . 7 C L U I Z C 7 5 2 2 @ 3 7 z D P L C x @                             w y.g.g.g.g.",
"g.g.g.g.8.M O                       . 7 z c C C C C C C z 5 7 x C Z Z Z C c q @                           4 t.h.g.g.g.g.",
"g.g.g.g.f.a.M . .                   . 3 q x c C C C L U m 7 5 0 q m C x x x q +                       . w 8.g.g.g.g.g.g.",
"g.g.g.g.g.h.a.r.r.N                   # 7 q x m m C H 7 1 1 1 1 1 2 q x z q 7 . . .                 w X.s.h.g.g.g.g.g.g.",
"g.g.g.g.g.g.h.h.l.9.#                 . 5 8 z m m m 2 w ) ) ' ' ) 4 @ x z q 7 O .                 . o.l.h.g.g.g.g.g.g.g.",
"g.g.g.g.g.g.g.g.g.g.y.N 4 .             + 5 8 x C q h U.[.[.}.[.R.G m x q q 7 @ .           . w y ..f.g.g.g.g.g.g.g.g.g.",
"g.g.g.g.g.g.g.g.g.g.h.f.a.9.N w B y 4 5 . 2 7 q x C Y v.H.K.I.A.k.R C z q 7 7 2 # 4 t e w A X.a.g.h.g.g.g.g.g.g.g.g.g.g.",
"g.g.g.g.g.g.g.g.g.g.g.g.h.h.f.a.g.g.t.8.y + 7 8 z C U q.q.w.w.w.q.U m z q 7 7 2 A p.f.f.s.f.h.h.g.g.g.g.g.g.g.g.g.g.g.g.",
"g.g.g.g.g.g.g.g.g.g.g.g.g.g.g.h.g.g.h.h.r.4 2 8 q x x Z I Y R U L C x q 8 7 2 y p.h.g.g.h.h.g.g.g.g.g.g.g.g.g.g.g.g.g.g.",
"g.g.g.g.g.g.g.g.g.g.g.g.g.g.g.g.g.h.g.e.Q 5 2 3 8 q z C L Z H I D c z q 7 3 + 8.h.g.g.g.g.g.g.g.g.g.g.g.g.g.g.g.g.g.g.g.",
"g.g.g.g.g.g.g.g.g.g.g.g.g.g.g.h.g.t.Q g :.7 7 2 3 8 x Z D D D D Z C z 8 3 + 5 0.h.g.g.g.g.g.g.g.g.g.g.g.g.g.g.g.g.g.g.g.",
"g.g.g.g.g.g.g.g.g.g.g.g.h.h.f.r.Q > g P.F.7 8 7 2 3 q Z Z Z Z Z C x q 5 + 5 7 0.h.g.g.g.g.g.g.g.g.g.g.g.g.g.g.g.g.g.g.g.",
"g.g.g.g.g.g.g.g.g.g.h.h.a.#.f - * k I.|.J.0 8 7 7 3 3 x C Z Z C x z 7 2 5 7 7 ..f.h.g.g.g.g.g.g.g.g.g.g.g.g.g.g.g.g.g.g.",
"g.g.g.g.g.g.g.g.h.g.u. .d : % % l U.]._.~.<.6 8 8 8 7 2 3 7 q q 7 5 2 6 7 7 5 , ! y.f.h.h.g.g.g.g.g.g.g.g.g.g.g.g.g.g.g.",
"g.g.g.g.g.g.h.f.e.! , : ; % o [ R.]._./._.I.u 8 q q q 7 3 2 @ 2 3 5 7 7 7 8 7 3.:., u ` t.g.h.h.g.g.g.g.g.g.g.g.g.g.g.g.",
"g.g.g.g.h.g.e.f > ; a : % X &.!.]././././._.F.q z x z q q q q 8 8 q 8 8 8 6 _ W.^.7.s % , W e.s.h.h.g.g.g.g.g.g.g.g.g.g.",
"g.g.h.h.u.! > ; a a : % o % F.{._._./././._.'.5.z C c x x c v C C C z 8 6 ) T.{.].].Y.l % % & d  .y.g.h.h.g.g.g.g.g.g.g.",
"h.g.u.+.d ; p a a : % o o X 3./././.)./.)._.].^.-.v Z C C D D P D C z 6 _ T.]._._._.{.!.,.o X X * , W #.a.h.h.g.g.g.g.g.",
"u.+.d a p a a a : % o o o X < I._./._.].{.{.{.|.E.O.Z Z Z D D D Z v 8 ' R.]._._._._.].{.!.l X X X * ; : r  .u.g.h.h.g.g.",
"s a a a a a a : % o o o o o X [ !._.]. X.X X|.|..XI.I Z Z C C Z Z c { E.]._._.).)._._.].W.l X o o X % p ; ; , ! #.s.h.g.",
"a a a a a a : % o o o o o o o % B._.{..XXXXX.X.XXX.XM.C C C C C C -.!.|.]._._._._._._./.6.o o o o o X o : a a p a ( u.h.",
"a a a a a : % o o o o o o o o X s U.{..XXXXXXXXXXXXX`.=.C C C m 1.^..X X|.{.].]._._._.R.s X o o o o o X X = a a a a d @.",
"a a a a : % o o o o o o o o o o X &.~. X.XXXXXXXXXXXoXY.J C x 1.'.XX.X.X.X|.{.]._._.~.:.X o o o o o o o X X * a a a a a ",
"a a a a % o o o o o o o o o o o o % B.|..XXXXXXXXXXXXXXXI.` { ^.XXXXXXXXXX X|.{.]._.7.% o o o o o o o o o o % a a a a a ",
"a a a a : % o o o o o o o o o o o X < I. X.XXXXXXXXXXXXXXXV.V..XXXXXXXXXXX.X X|.{.L.> X o o o o o o o o o o % a a a a a ",
"a a a a a p % X o o o o o o o o o o X j W..XXXXXXXXXXXXX(.;.| T.XXXXXXXXXX.X.X XQ.k X o o o o o o o o o o % : a a a a a ",
"a a a a a a a * X X o o o o o o o o o X &.'.XXXXXXXXXX}.V.S S $.^.XXXXXXXX.X.X'.,.X o o o o o o o o o o % : a a a a a a ",
"a a a a a a a a : X X o o o o o o o o X & C. XXXXXXX}.I.K F F V m..XXXXXXX.X XC.& o o o o o o o o o o o = a a a a a a a "
};
