/* XPM */
static char *harry_fanmade[] = {
/* columns rows colors chars-per-pixel */
"60 60 192 2 ",
"   c #000000",
".  c #0C0202",
"X  c #130304",
"o  c #1C0406",
"O  c #14090B",
"+  c #1D0809",
"@  c #030916",
"#  c #0C0A13",
"$  c #050D1D",
"%  c #0B0E1B",
"&  c #1D0C15",
"*  c #120E1B",
"=  c #0F1116",
"-  c #07101F",
";  c #16181D",
":  c #210507",
">  c #290707",
",  c #260807",
"<  c #240608",
"1  c #290709",
"2  c #25090A",
"3  c #2C0A0A",
"4  c #340C0B",
"5  c #3A0E0D",
"6  c #23100E",
"7  c #35110E",
"8  c #3B110E",
"9  c #340F11",
"0  c #2C1213",
"q  c #281817",
"w  c #341212",
"e  c #3D1311",
"r  c #381B1B",
"t  c #3C1C1B",
"y  c #3C201C",
"u  c #050E21",
"i  c #071023",
"p  c #081224",
"a  c #071429",
"s  c #0A152A",
"d  c #0C182E",
"f  c #121424",
"g  c #151929",
"h  c #191C2C",
"j  c #0D1C33",
"k  c #101F37",
"l  c #181F35",
"z  c #101F38",
"x  c #271B2C",
"c  c #361E2F",
"v  c #0F2039",
"b  c #1A2235",
"n  c #102039",
"m  c #252323",
"M  c #342624",
"N  c #3C2423",
"B  c #342B29",
"V  c #3A322F",
"C  c #232833",
"Z  c #2C303A",
"A  c #3A3635",
"S  c #450F0E",
"D  c #41120F",
"F  c #48100F",
"G  c #411310",
"H  c #431411",
"J  c #441512",
"K  c #4B1514",
"L  c #441814",
"P  c #4A1A14",
"I  c #4B1B15",
"U  c #481B1A",
"Y  c #521512",
"T  c #511719",
"R  c #5C1A1C",
"E  c #681412",
"W  c #631C1F",
"Q  c #711413",
"!  c #46211E",
"~  c #4E211D",
"^  c #441B26",
"/  c #411C2A",
"(  c #671D20",
")  c #6B1F21",
"_  c #452B29",
"`  c #582827",
"'  c #52342F",
"]  c #462434",
"[  c #582431",
"{  c #473734",
"}  c #4D3B39",
"|  c #533A36",
" . c #553D3B",
".. c #593D39",
"X. c #6F2023",
"o. c #64272A",
"O. c #732124",
"+. c #7B2327",
"@. c #762D2E",
"#. c #792D33",
"$. c #4C423E",
"%. c #52413D",
"&. c #5D423D",
"*. c #65413C",
"=. c #74403B",
"-. c #2F3441",
";. c #3F424C",
":. c #4A4543",
">. c #494644",
",. c #524441",
"<. c #5D4441",
"1. c #5B4A47",
"2. c #484C56",
"3. c #50545F",
"4. c #674A45",
"5. c #654C4B",
"6. c #7B544C",
"7. c #655854",
"8. c #6E5A54",
"9. c #725957",
"0. c #6A625C",
"q. c #76635D",
"w. c #5A5B63",
"e. c #6F6963",
"r. c #62646C",
"t. c #746861",
"y. c #7A6B64",
"u. c #7D746D",
"i. c #6D6D73",
"p. c #84262A",
"a. c #8A272B",
"s. c #8D282C",
"d. c #942A2E",
"f. c #852B34",
"g. c #8D2B33",
"h. c #992C30",
"j. c #9C2D32",
"k. c #803430",
"l. c #993136",
"z. c #A22F33",
"x. c #A33036",
"c. c #AE3237",
"v. c #A53138",
"b. c #B03237",
"n. c #B23338",
"m. c #B43439",
"M. c #B53439",
"N. c #B8353A",
"B. c #954B45",
"V. c #9E5A54",
"C. c #89655C",
"Z. c #A6675F",
"A. c #8A7C74",
"S. c #AD7169",
"D. c #8F847C",
"F. c #94867D",
"G. c #948B83",
"H. c #9C8D83",
"J. c #928C8B",
"K. c #95908D",
"L. c #A48D83",
"P. c #A1968C",
"I. c #A4998F",
"U. c #A89C92",
"Y. c #AEA297",
"T. c #B3A398",
"R. c #B7A69B",
"E. c #B5ABA1",
"W. c #B8AEA5",
"Q. c #BDB2A6",
"!. c #C5ABA0",
"~. c #C5B3A7",
"^. c #C2B5A9",
"/. c #C6B9AD",
"(. c #CCBAAE",
"). c #CBBEB1",
"_. c #CEC1B4",
"`. c #CFC4BB",
"'. c #D1C3B6",
"]. c #D6C6B9",
"[. c #D9CBBE",
"{. c #DCCEC0",
"}. c #DFD1C3",
"|. c #E1D2C4",
" X c #E4D7CA",
".X c #EADBCD",
"XX c #EDDED0",
"oX c #EFE1D3",
"OX c #F4E4D5",
"+X c #F7E7D8",
"@X c #FEEEDE",
"#X c #FFF1E1",
/* pixels */
"M.M.M.M.M.M.M.M.M.M.M.M.M.M.M.M.M.M.M.M.M.M.M.M.M.M.N.N.n.c.h.h.z.a.a.h.c.N.M.M.M.M.M.M.M.M.M.M.M.M.M.M.M.M.M.M.M.M.M.M.",
"M.M.M.M.M.M.M.M.M.M.M.M.M.M.M.M.M.M.M.M.M.M.M.M.N.n.a.W e 9 o + 2 . . X e +.c.M.M.M.M.M.M.M.M.M.M.M.M.M.M.M.M.M.M.M.M.M.",
"M.M.M.M.M.M.M.M.M.M.M.M.M.M.M.M.M.M.M.M.M.M.M.a.W K .                       9 R j.M.M.M.M.M.M.M.M.M.M.M.M.M.M.M.M.M.M.M.",
"M.M.M.M.M.M.M.M.M.M.M.M.M.M.M.M.M.M.M.M.M.c.X.X                                 2 +.n.M.M.M.M.M.M.M.M.M.M.M.M.M.M.M.M.M.",
"M.M.M.M.M.M.M.M.M.M.M.M.M.M.M.M.M.M.M.M.b.T                                       . e p.n.M.M.M.M.M.M.M.M.M.M.M.M.M.M.M.",
"M.M.M.M.M.M.M.M.M.M.M.M.M.M.M.M.M.M.M.M.)                                             . O.M.M.M.M.M.M.M.M.M.M.M.M.M.M.M.",
"M.M.M.M.M.M.M.M.M.M.M.M.M.M.M.M.M.M.M.j.+                                               + j.M.M.M.M.M.M.M.M.M.M.M.M.M.M.",
"M.M.M.M.M.M.M.M.M.M.M.M.M.M.M.M.M.M.h.9                                                   T n.M.M.M.M.M.M.M.M.M.M.M.M.M.",
"M.M.M.M.M.M.M.M.M.M.M.M.M.M.M.M.M.b.e                                                       R M.M.M.M.M.M.M.M.M.M.M.M.M.",
"M.M.M.M.M.M.M.M.M.M.M.M.M.M.M.M.M.s..                                                       + z.M.M.M.M.M.M.M.M.M.M.M.M.",
"M.M.M.M.M.M.M.M.M.M.M.M.M.M.M.M.M.T             . X X X X X X . .                           . s.M.M.M.M.M.M.M.M.M.M.M.M.",
"M.M.M.M.M.M.M.M.M.M.M.M.M.M.M.M.s..             X o o o o : : < : o X . . X .                 e c.M.M.M.M.M.M.M.M.M.M.M.",
"M.M.M.M.M.M.M.M.M.M.M.M.M.M.M.N.W             . o o o o : < 1 1 3 1 1 1 1 1 < : o X           3 c.M.M.M.M.M.M.M.M.M.M.M.",
"M.M.M.M.M.M.M.M.M.M.M.M.M.M.M.M.T             . o o o : 1 4 4 5 5 5 5 4 4 4 4 4 3 3 < o X     2 z.M.M.M.M.M.M.M.M.M.M.M.",
"M.M.M.M.M.M.M.M.M.M.M.M.M.M.M.z.+             X o o o < 4 5 5 5 8 D D D 8 5 5 5 5 4 4 < : X     X.N.M.M.M.M.M.M.M.M.M.M.",
"M.M.M.M.M.M.M.M.M.M.M.M.M.M.N.X.              o o o : 1 4 5 8 8 D G G G G D 8 5 5 5 4 1 < : .   +.N.M.M.M.M.M.M.M.M.M.M.",
"M.M.M.M.M.M.M.M.M.M.M.M.M.M.N.+.            . o o o < 4 4 5 8 D H H J J J H D 8 8 5 5 1 < : X   a.N.M.M.M.M.M.M.M.M.M.M.",
"M.M.M.M.M.M.M.M.M.M.M.M.M.M.n.)             X o o : 3 4 5 5 5 H J J J L L J J H G 8 5 1 : o .   a.N.M.M.M.M.M.M.M.M.M.M.",
"M.M.M.M.M.M.M.M.M.M.M.M.M.z.T 2 X         X o < 1 3 4 5 5 5 5 J L L P P P P P J J D 5 1 : o   2 x.M.M.M.M.M.M.M.M.M.M.M.",
"M.M.M.M.M.M.M.M.M.M.M.M.n.R 3 4 4 :     . o < 3 5 5 8 e G G G J P P P P P P P P H 8 5 1 : o   e n.M.M.M.M.M.M.M.M.M.M.M.",
"M.M.M.M.M.M.M.M.M.M.M.M.z.5 4 4 4 1 . X : : 1 4 4 4 3 4 4 4 4 e L P P P P P P L e 8 4 1 : X   ( M.M.M.M.M.M.M.M.M.M.M.M.",
"M.M.M.M.M.M.M.M.M.M.M.M.d.4 3 4 4 < . o : 1 4 3 3 7 8 H 8 1 1 e e 0 7 P P P L e 8 7 4 3 2 X . d.M.M.M.M.M.M.M.M.M.M.M.M.",
"M.M.M.M.M.M.M.M.M.M.M.N.s.4 3 3 4 o X o < 3 3 < > 4 7 8 8 5 3 H P P L P P J e 8 7 7 4 3 1 X   p.N.M.M.M.M.M.M.M.M.M.M.M.",
"M.M.M.M.M.M.M.M.M.M.M.N.a.4 4 1 1 o X o : 4 2 %.8.&._ 0 8 3 3 H P P P P P e 8 e H H 7 3 1 .   a.N.M.M.M.M.M.M.M.M.M.M.M.",
"M.M.M.M.M.M.M.M.M.M.M.N.s.4 4 1 1 X X o o 4 5 | R.(.7.{ %.} 4 J P P P P H 8 7 e e e 7 3 1 X + ( n.M.M.M.M.M.M.M.M.M.M.M.",
"M.M.M.M.M.M.M.M.M.M.M.M.d.3 4 1 < X X o o < 5 5 ~ _ q ,.M 1.5 J P P P P 7 4 3 7 4 5 3 2 2 3 a.e a.M.M.M.M.M.M.M.M.M.M.M.",
"M.M.M.M.M.M.M.M.M.M.M.M.z.3 4 4 < . o o o o : 4 5 5 3 2 2 4 4 8 K P P 8 7 y } { %.4. .M + e d.w a.M.M.M.M.M.M.M.M.M.M.M.",
"M.M.M.M.M.M.M.M.M.M.M.M.M.( : 4 < . X o o o o o : > 3 3 3 1 3 4.C.C.6.! 4  .$.,.{ /.[.y.6 J a.( M.M.M.M.M.M.M.M.M.M.M.M.",
"M.M.M.M.M.M.M.M.M.M.M.M.b.o.# . . X o 2 6 + o _ { N r 2 : < w (.#X@X+X9.3 e 0 N 6 | ' 2 4 K ( ( M.M.M.M.M.M.M.M.M.M.M.M.",
"M.M.M.M.M.M.M.M.M.M.n.g.^ p Z B X o o r | ,.1.9.} 9.,. .o : w ~.].!.].8.4 H e 8 7 7 8 7 3 K K h.M.M.M.M.M.M.M.M.M.M.M.M.",
"M.M.M.M.M.M.M.M.n.g.^ f a f I.1.X o o o o 2 N N o 6 2 N : : 3 *.` P ` t 5 e L H 8 7 7 8 3 R O.M.M.M.M.M.M.M.M.M.M.M.M.M.",
"M.M.M.M.M.M.n.f.^ * $ a $ 0.T.O o o o o o o o o o o o : < 3 4 5 P P P 4 4 e ..<...<.<.5. .@.d.M.M.M.M.M.M.M.M.M.M.M.M.M.",
"M.M.M.M.n.f./ f u u i i = E.7.. o o o o o o : : < < < 1 5 5 4 5 H H L 5 1 7 L ! 5.5.5.,.N 8.@.M.M.M.M.M.M.M.M.M.M.M.M.M.",
"M.M.n.f./ p u i i i i @ :./.q . X o o o o : 1 3 3 3 3 5 3 2 4 8 8 8 8 4 1 3 e e 8 e 7 0 K l.l.M.M.M.M.M.M.M.M.M.M.M.M.M.",
"n.g./ f u i i i i i i @ e.Y.X . . o o o o < 4 4 4 4 4 G 7 1 5 J P P L 5 : 2 4 7 8 8 e 3 O.N.M.M.M.M.M.M.M.M.M.M.M.M.M.M.",
"] g $ i i i i i i i i @ 0.'.q . . X : : : 3 4 4 4 4 5 H e 2 1 8 J J G 4 < : 4 7 7 7 7 3 d.M.M.M.M.M.M.M.M.M.M.M.M.M.M.M.",
"a p $ i i i i i i i i @ :.@XD.X . . : < < 3 4 4 4 4 8 J J 5 < o 3 1 2 < : < 1 3 3 3 3 G c.M.M.M.M.M.M.M.M.M.M.M.M.M.M.M.",
"j a $ i i i i i i i i $ V OXOX,.. . o < < 3 4 4 4 5 J e 2 X . X o o o < 2 < 2 3 3 3 2 ) M.M.M.M.M.M.M.M.M.M.M.M.M.M.M.M.",
"j p $ i i i i i i i i u m |.#X).q . X < < 3 4 4 5 G 8 o X X X X X X . X 2 2 2 1 1 2 4 z.M.M.M.M.M.M.M.M.M.M.M.M.M.M.M.M.",
"j p $ i i i i i i i i u ; ).#X#XH.X . o < 1 4 4 4 5 2 o o : 2 : o o o X o 2 2 1 1 + W M.M.M.M.M.M.M.M.M.M.M.M.M.M.M.M.M.",
"j i u i i i i i i i i i @ U.#X#X+X7.. X < 1 3 4 4 3 2 N q.U.R.8._ | 3 o X 2 < 2 2 3 z.M.M.M.M.M.M.M.M.M.M.M.M.M.M.M.M.M.",
"j i u i i i i i i i i i @ u.#X@X#X[.M . o < 3 4 4 4 0 H.|.+X+XD._.+XA.X o < < 2 + 0 g.M.M.M.M.M.M.M.M.M.M.M.M.M.M.M.M.M.",
"j i u i i i i i i i i i @ >.+X#X@X#XI.O X < 1 4 4 4 5 ~ ` *.4...L.L.%.X : : : 2 O i * [ v.M.M.M.M.M.M.M.M.M.M.M.M.M.M.M.",
"j - u i i i i i i i i i u h ].#X@X#X@Xt.. o 1 4 4 4 4 S K K K K K H 1 : : : : O - i u $ x #.n.M.M.M.M.M.M.M.M.M.M.M.M.M.",
"d i u i i i i i i i i i i @ G.#X@X@X#X.X,.. < 3 4 4 4 4 5 K T T K 5 < : : : X % p i p u $ f [ x.M.M.M.M.M.M.M.M.M.M.M.M.",
"d i $ i i i i i i i i i i @ >.+X#X@X@X#X[.V X 1 4 4 4 3 2 o 2 3 3 3 < : < o # p i i i i $ $ a x f.M.M.M.M.M.M.M.M.M.M.M.",
"d i $ i i i i i i i i i i u ; '.#X@X@X@X#X).m 2 t e 3 3 7 7 3 w e 7 2 : o # p i i i i i i $ i a g [ v.M.M.M.M.M.M.M.M.M.",
"d p $ i i i i i i i i i i i @ D.#X@X@X@X@X#XQ.V e t L J P P P P P 5 : o } h i i i i i i i u $ a a d c g.M.M.M.M.M.M.M.M.",
"d p $ i i i i i i i i i i i $ A XX#X@X@X@X@X#Xy.G e ! P P P P P J 1 + 0.).C u i i i i i i i u $ a d j h [ v.N.M.M.M.M.M.",
"d a $ i i i i i i i i i i i i % I.#X@X@X@X#XOX&.J e q 7 7 8 8 4 , B I.@XQ.C u i i i i i i i i $ i a j j j c g.M.M.M.M.M.",
"d a $ i i i i i i i i i i i p u >.OX#X@X@X#X'.! K U H.P.A.u.y.A.G.].#X}.G.b u i i i i i i i i i $ i j j j j h [ j.M.M.M.",
"d a i i i i i i i i i i i p a 3.e.Y.#X@X@X#XH.e K L Y.#X#X#X#X#X#X#X.XQ.K.p i i i i i i i i i i i $ a j z z j d x f.M.M.",
"d a i u i i i i i i i p a d i.XX|.0..X#X@X+X4.D K 5 o.~.#X@X@X@X#X+XW..Xw.u i i i i i i i i $ $ $ a j j z k j j a x l.M.",
"a a p $ i i i i i i p $ $ Z  X#X#XP.G.#X#X~.U J J F Q =.|.#X@X@X@X^.}.@X2.u i i i i i i $ $ i p d j j j z j j j a j ] c.",
"a a a $ i i i i i i $ $ u b `.#X#X+Xu./. X<.D J e Y Q k.Y.@X@X@X)._.#X+X2.u i i i i i i $ - a a a a d j j j j j d j b f.",
"a p p i u i i i i $ $ % i s W.#X@X#X{.e.:.3 e e 5 E Q B.(.'.#X'./.@X#XoX;.u i i i i i i i $ $ a a p p p a p d a p j v ] ",
"a p p p $ i i $ i i * w & p I.#X@X@X#XR.0 5 5 4 S Q Q B.OXW._.^.@X@X#X X-.u i i i i i i i i u $ p a p p p i p p i j n l ",
"p p i i $ i - p a $ & D 5 * J.#X@X#X+X8.4 5 4 3 E Q Q V.@X^.E.@X@X@X#X`.C u i i i i i i i i i i $ i p p p p p p i k n j ",
"p i u i $ $ p a i % 0 D 5 & r.@X@X@XF.4 5 5 3 S Q Q Q Z.@X@X@X#X@X@X#XE.g u i i i i i i i i i i p $ i p i p p p p n z j ",
"i i u i i i i i $ * 5 8 5 & 2.+X#X'.N 4 5 5 4 E Q Q Q S.#X@X@X@X@X@X@XJ.p u i i i i i i i i i i i $ i a i p i p d n j j "
};
