/* XPM */
static char *paul_fanmade[] = {
/* columns rows colors chars-per-pixel */
"60 60 202 2 ",
"   c #000000",
".  c #0C0403",
"X  c #090608",
"o  c #0E0C0B",
"O  c #120605",
"+  c #140806",
"@  c #170806",
"#  c #1A0806",
"$  c #170708",
"%  c #1B090A",
"&  c #1F110E",
"*  c #050B14",
"=  c #060D18",
"-  c #0B111F",
";  c #161412",
":  c #1A1918",
">  c #250704",
",  c #240905",
"<  c #2B0906",
"1  c #230C0B",
"2  c #2A0E0C",
"3  c #320B06",
"4  c #320D08",
"5  c #3B0E09",
"6  c #2C110C",
"7  c #34120D",
"8  c #3B130D",
"9  c #2F0E10",
"0  c #320F11",
"q  c #251C19",
"w  c #361113",
"e  c #3A1214",
"r  c #3D1A13",
"t  c #311C18",
"y  c #23201E",
"u  c #2E231F",
"i  c #071223",
"p  c #0A1526",
"a  c #121727",
"s  c #111924",
"d  c #121A2A",
"f  c #1A1A29",
"g  c #2A1B2A",
"h  c #3C1F2D",
"j  c #1D222A",
"k  c #1B2331",
"l  c #292623",
"z  c #35312E",
"x  c #37322F",
"c  c #242B38",
"v  c #2E333A",
"b  c #43120C",
"n  c #48140D",
"m  c #50160D",
"M  c #54180F",
"N  c #431514",
"B  c #441A12",
"V  c #4C1C13",
"C  c #4A161A",
"Z  c #4C171A",
"A  c #501413",
"S  c #541C13",
"D  c #5B1D12",
"F  c #54191D",
"G  c #581B1F",
"H  c #6E1616",
"J  c #661F1E",
"K  c #552016",
"L  c #5D2116",
"P  c #57251B",
"I  c #632216",
"U  c #642519",
"Y  c #6A2619",
"T  c #64291C",
"R  c #6C2B1D",
"E  c #732C1D",
"W  c #782E1F",
"Q  c #431C26",
"!  c #5D1C20",
"~  c #621E22",
"^  c #681F24",
"/  c #43202E",
"(  c #48262A",
")  c #55342C",
"_  c #5A2531",
"`  c #473A35",
"'  c #5A3D35",
"]  c #6C2025",
"[  c #6C2D21",
"{  c #732F20",
"}  c #762B25",
"|  c #752329",
" . c #7B252B",
".. c #753123",
"X. c #7D3222",
"o. c #7A3629",
"O. c #6C2733",
"+. c #782A36",
"@. c #663D32",
"#. c #48423F",
"$. c #66453C",
"%. c #75493E",
"&. c #363941",
"*. c #3D4049",
"=. c #44454B",
"-. c #554A44",
";. c #534D48",
":. c #56514C",
">. c #5A534D",
",. c #4F4E53",
"<. c #565659",
"1. c #624F47",
"2. c #65534B",
"3. c #775348",
"4. c #655750",
"5. c #675E57",
"6. c #6D5B53",
"7. c #725C54",
"8. c #795D54",
"9. c #6E655C",
"0. c #77625A",
"q. c #666466",
"w. c #78706B",
"e. c #79726D",
"r. c #82272D",
"t. c #85282E",
"y. c #88292F",
"u. c #833524",
"i. c #8A3927",
"p. c #883928",
"a. c #923C29",
"s. c #983E2B",
"d. c #852D37",
"f. c #8C2A31",
"g. c #8D2F39",
"h. c #952D33",
"j. c #9A2F35",
"k. c #873B33",
"l. c #9F3037",
"z. c #98313A",
"x. c #A43239",
"c. c #AC343C",
"v. c #B3363E",
"b. c #B4363E",
"n. c #934232",
"m. c #84584B",
"M. c #945B4B",
"N. c #876459",
"B. c #95675A",
"V. c #9D6C5E",
"C. c #A26757",
"Z. c #A36C5D",
"A. c #866D64",
"S. c #87736A",
"D. c #92766B",
"F. c #897E73",
"G. c #A06F60",
"H. c #A57162",
"J. c #AD7464",
"K. c #B17665",
"L. c #B67867",
"P. c #B97967",
"I. c #BF7C69",
"U. c #C57E6B",
"Y. c #8C8379",
"T. c #93857B",
"R. c #A38A7F",
"E. c #8C8681",
"W. c #978B82",
"Q. c #9D9289",
"!. c #A4968A",
"~. c #A2968D",
"^. c #A99E93",
"/. c #B99990",
"(. c #B7A99C",
"). c #C59B91",
"_. c #C4A499",
"`. c #C3B6A9",
"'. c #C7B6A8",
"]. c #CABAAB",
"[. c #D4B2A7",
"{. c #CCBFB2",
"}. c #CEC2B4",
"|. c #D4C3B3",
" X c #D8C4B5",
".X c #D9C9BA",
"XX c #E3CEBD",
"oX c #E6D1BE",
"OX c #DBCEC1",
"+X c #DED1C3",
"@X c #E5D4C4",
"#X c #E9D5C3",
"$X c #ECD9C7",
"%X c #E6D9CA",
"&X c #ECDCCB",
"*X c #F2E0CE",
"=X c #EEE0D0",
"-X c #F5E4D3",
";X c #F7E7D7",
":X c #F8E7D6",
">X c #FCECDC",
",X c #FFF0E0",
/* pixels */
"v.v.v.v.v.v.v.v.v.v.v.v.v.v.v.v.v.v.v.b.b.b.b.b.h.F .   O . 1 ^ c.b.c.! O ] ^ 9 f.b.b.b.v.v.v.v.v.v.v.v.v.v.v.v.v.v.v.v.",
"v.v.v.v.v.v.v.v.v.v.v.v.v.v.v.v.v.v.b.x.~ !  . .2         9 $ $ ~  .G . O w 1 t.b.h.! t.v.b.b.v.v.v.v.v.v.v.v.v.v.v.v.v.",
"v.v.v.v.v.v.v.v.v.v.v.v.v.v.b.b.b.b.b.!       .           .   . N .         . N ~ $   $ C G h.b.v.v.v.v.v.v.v.v.v.v.v.v.",
"v.v.v.v.v.v.v.v.v.v.v.v.v.c.| ~ ~ | | %                         . .                         w c.b.b.v.v.v.v.v.v.v.v.v.v.",
"v.v.v.v.v.v.v.v.b.b.v.v.b.h..       .                                                       . e ] x.b.v.v.v.v.v.v.v.v.v.",
"v.v.v.v.v.v.v.b.c.f.v.b.c.~ .                                                                     2 h.b.b.b.b.v.v.v.v.v.",
"v.v.v.v.v.v.v.b. .9 x.c.F .                                                                         F b.x.y.j.v.b.v.v.v.",
"v.v.v.v.v.v.v.b.~   ] y..                                                                           % C 2 . w l.x.c.v.v.",
"v.v.v.v.v.v.v.b.]   O %                                                                                     . 2 1 e j.b.",
"v.v.v.v.v.v.v.b.Z                                                                                                 . t.b.",
"v.v.v.v.v.v.v.j.w                                                                                                 F c.v.",
"v.v.v.v.b.c.| N O                                                                                               1 h.b.v.",
"v.v.v.b.c.~ .                                                                                                   % ] x.b.",
"v.v.v.x.| 2                                                                                                       . r.b.",
"v.v.v.F .                                               .                                                         . | b.",
"v.b.x.Z                                                 O @                                                       O r.b.",
"b.x.N                                                   . .                                                         F v.",
" .e e 0 .                                                 .         % .                                             0 t.",
"] G  .1                                                 . @     . r T @   .                                         9 l.",
"x.j.x.w                                           . @   . B @   . T T   . 6 .                                     . G v.",
"v.v.v.Z                                       . # 8 1   1 i.V   . T p.1 6 8 .                                     . G v.",
"v.b.c.F                                       . 3 5 O   6 { 6   6 p.i.8 8 5 .                                       1 x.",
"v.b.h.O                                 X y q q t 6 o o w R 1   7 i.I 4 # b O                                       .  .",
"v.b.f.O                                 ; ;.6.B.V.B.3.3.$...7   6 P ' ' ` ` z z z q                                 $  .",
"v.b.!                                   q :.>.8.B.V.V.H.m.P T 7 8 ) B.Z.N.8.4.>.>.z                                 2 x.",
"v.b.f.O                                 l :.5.W.S.7.6.N.3.7 K B 2 ` A.R.S.6.6.>.:.l                                 O f.",
"v.b.x.1                                 ` 4.5.R.D.0.N.G.$.B u.{ B $.B.D.S.A.5.4.4.l                                   ~ ",
"v.b. .$                                 ` 7.7.B.Z.J.P.K.$.L s.u.T 3.J.K.H.V.8.B.N.y                               . 2 ] ",
"v.b.^                                   ` 8.G.U.U.U.I.L.@.Y s.X.[ m.K.P.L.K.J.V.4.:                               . Z j.",
"v.b.l.w   . .                           u $.m.M.B.C.C.V.) U X.E R m.H.J.L.P.K.0.:.:                               O 0 t.",
"v.v.f.1 . .                             . V i.a.i.p.p.[ V M E E Y @.%.%.3.m.2.2.-.;                             . F | c.",
"v.v.h.N .                                 V i.a.i.p.X.b < 3 5 5 5 n R p.i...& o o                                 . ] v.",
"v.v.b.h.C .                               1 E i.i.u.X.U 8 > < > 4 8 R u.p.E 6 O                             . .   w | v.",
"v.v.b.t.%                                 @ Y X.X.u.u.u.Y b 5 8 U X.u.u.X.I 7 O                               . C h.b.v.",
"v.b.c.9                                   O L E X.u.i.i.U B 7 8 V { u.X.R I D #                               .  .b.v.v.",
"v.v.c.| 2 .                               O V Y X.u.u.r % % 1 1 # 1 P E I D m .                               e x.v.v.v.",
"v.v.v.b.x.F O                               7 I E ..V 2 7 2 1 6 6 1 1 D D D 8 .                             . r.b.v.v.v.",
"v.v.v.v.b.c.F                               7 D Y E ..u.n.k.o.k.n...V S D M <                             . e x.b.v.v.v.",
"v.v.v.v.v.b.r.1                           . b D J R E R o.n.n.n.o.U I D M 8 .                             9 x.b.v.v.v.v.",
"v.v.v.v.v.v.c.] .                           , b D I L D S V S V B V D D m 3 .                         O 1 | b.v.v.v.v.v.",
"v.v.v.v.v.v.b.f.1 . O .                       , n D I W p.p.u.X.Y S S S b #                         1 f.x.v.v.v.v.v.v.v.",
"v.v.v.v.v.v.v.v.x.h.t.%                     . O 3 n E a.a.a.i.a.u.Y D n ,     : X                 . N v.b.v.v.v.v.v.v.v.",
"v.v.v.v.v.v.v.v.b.v.O.- * X                 . 2 # 3 D X.T E R E E D b < 1 1 . X         . 0 .   . O e c.v.v.v.v.v.v.v.v.",
"v.v.v.v.v.v.v.b.x._ a p = * i v o   o X       B S 7 3 b 6 r r B V 2 > 2 L K & l ; 9.q   X Q e F 1 w ~ v.v.v.v.v.v.v.v.v.",
"v.v.v.v.v.v.b.z.h p p p - * d E.9.z z ; ` #.o 7 U U B , O @ @ @ . # B U U P #.F.!.XXw.: * p g O.| x.v.b.v.v.v.v.v.v.v.v.",
"v.v.v.v.b.b.d.g p p p p p i =. XoX(.W.^.@X%XY.q V U U L V B 8 6 8 K U U P Y.`..X#XoX].#.i p p p h d.v.b.v.v.v.v.v.v.v.v.",
"v.v.v.b.v.O.f p p p p p p d W.oX#X*X:X>X:X:X-XT.7 n S D I U U U I L S B S.-X:X-X&X#XoX~.s p p p p a ( g.v.b.v.v.v.v.v.v.",
"v.v.b.c._ a p p p p p p i &.|.oX$X-X>X>X>X>X>X%X1.5 b n n n n n n n 7 0.%X:X:X:X-X&X#X].j p p p p p p f ( g.c.b.b.v.v.v.",
"v.b.x.( p p p p p p p p i &.'.XX#X:X>X>X>X>X>X>X`.( b b b b b b b 4 4.@X:X:X>X:X-X&X#Xw.i p p p p p p p p f / d.c.b.b.v.",
"b.x./ p p p p p p p p p p p ,.'.#X-X:X:X>X>X,X>X,XT.7 b b b b b 3 -.@X>X:X>X>X>X-X-X^.f p p p p p p p p p p p a h +.c.b.",
"z.h p p p p p p p p p p p p p <. X*X-X>X,X,X,X,X,X-X2.5 b b b < -.+X,X>X>X>X>X>X>X{.v i p p p p p p p p p p p p p a / +.",
"g p p p p p p p p p p p p p p k ~.@X-X:X,X,X,X,X,X,X|.( 5 8 < ;.+X,X,X>X>X>X>X>XOX=.i p p p p p p p p p p p p p p p p p ",
"p p p p p p p p p p p p p p p d E.].@X:X,X,X,X,X,X,X,X(.r 6 w.&X,X,X,X,X,X>X>X>XE.p p p p p p p p p p p p p p p p p p p ",
"p p p p p p p p p p p p p p p i q..X].&X>X,X,X,X,X,X,X>XQ.~.>X,X,X,X,X,X,X,X,X*Xw.i p p p p p p p p p p p p p p p p p p ",
"p p p p p p p p p p p p p p p i &.|.@X{.=X>X,X,X,X,X,X,X>XXX>X,X,X,X,X,X,X,X-XXX<.i p p p p p p p p p p p p p p p p p p ",
"p p p p p p p p p p p p p p p p d Q.*X%X{.&X>X,X,X,X,X>X/.o.).,X,X,X,X,X>X-X&X X*.i p p p p p p p p p p p p p p p p p p ",
"p p p p p p p p p p p p p p p p i <.oX-X&X}.&X>X>X,X,X_.| H } /.>X,X,X;X+X&X&X`.c p p p p p p p p p p p p p p p p p p p ",
"p p p p p p p p p p p p p p p p p k (.*X:X=X|.@X>X,X[.o.H H H J D.=X&X`.&X-X&X~.d p p p p p p p p p p p p p p p p p p p ",
"p p p p p p p p p p p p p p p p p i q.#X-X:X:X.X}. Xk.H H H H H A -.Q.%X>X-X$Xe.p p p p p p p p p p p p p p p p p p p p ",
"p p p p p p p p p p p p p p p p p i c `.-X:X>X>X@X].k.H H H H H | 0.OX,X:X-X#X<.i p p p p p p p p p p p p p p p p p p p "
};
